public/logos/A5.svg

<?xml version="1.0" encoding="UTF-8"?>
<svg xmlns="http://www.w3.org/2000/svg" xmlns:xlink="http://www.w3.org/1999/xlink" width="176pt" height="51.63pt" viewBox="0 0 176 51.63" version="1.1">
<defs>
<clipPath id="clip1">
  <path d="M 45 1 L 97 1 L 97 51.628906 L 45 51.628906 Z M 45 1 "/>
</clipPath>
</defs>
<g id="surface1">
<path style=" stroke:none;fill-rule:nonzero;fill:rgb(89.395142%,10.453796%,19.309998%);fill-opacity:1;" d="M 0 1.609375 L 10.316406 1.609375 L 10.316406 20.164062 L 29.339844 20.164062 L 29.339844 1.609375 L 39.65625 1.609375 L 39.65625 48.5 L 29.339844 48.5 L 29.339844 29.675781 L 10.316406 29.675781 L 10.316406 48.5 L 0 48.5 L 0 1.609375 "/>
<g clip-path="url(#clip1)" clip-rule="nonzero">
<path style=" stroke:none;fill-rule:nonzero;fill:rgb(89.395142%,10.453796%,19.309998%);fill-opacity:1;" d="M 85.609375 26.628906 L 85.609375 26.488281 C 85.609375 18.25 79.566406 11.386719 71.050781 11.386719 C 62.539062 11.386719 56.636719 18.113281 56.636719 26.351562 L 56.636719 26.488281 C 56.636719 34.730469 62.675781 41.59375 71.191406 41.59375 C 79.707031 41.59375 85.609375 34.863281 85.609375 26.628906 M 45.582031 26.628906 L 45.582031 26.488281 C 45.582031 12.828125 56.359375 1.636719 71.191406 1.636719 C 86.023438 1.636719 96.664062 12.6875 96.664062 26.351562 L 96.664062 26.488281 C 96.664062 40.152344 85.886719 51.347656 71.050781 51.347656 C 56.222656 51.347656 45.582031 40.292969 45.582031 26.628906 "/>
</g>
<path style=" stroke:none;fill-rule:nonzero;fill:rgb(89.395142%,10.453796%,19.309998%);fill-opacity:1;" d="M 120.730469 25.347656 C 125.886719 25.347656 128.90625 22.265625 128.90625 18.246094 L 128.90625 18.113281 C 128.90625 13.488281 125.683594 11.011719 120.53125 11.011719 L 112.558594 11.011719 L 112.558594 25.347656 Z M 102.242188 1.699219 L 121.398438 1.699219 C 132.589844 1.699219 139.351562 8.332031 139.351562 17.910156 L 139.351562 18.046875 C 139.351562 28.894531 130.910156 34.523438 120.394531 34.523438 L 112.558594 34.523438 L 112.558594 48.589844 L 102.242188 48.589844 L 102.242188 1.699219 "/>
<path style=" stroke:none;fill-rule:nonzero;fill:rgb(89.395142%,10.453796%,19.309998%);fill-opacity:1;" d="M 175.992188 6.234375 L 150.132812 37.046875 L 142.699219 30.8125 L 168.5625 -0.00390625 L 175.992188 6.234375 "/>
<path style=" stroke:none;fill-rule:nonzero;fill:rgb(89.395142%,10.453796%,19.309998%);fill-opacity:1;" d="M 138.386719 50 C 134.8125 50.019531 131.90625 47.128906 131.898438 43.558594 C 131.882812 39.980469 134.769531 37.078125 138.339844 37.070312 C 141.917969 37.058594 144.820312 39.941406 144.828125 43.515625 C 144.839844 47.089844 141.953125 49.992188 138.386719 50 "/>
</g>
</svg>

<svg xmlns="http://www.w3.org/2000/svg" width="176pt" height="68.84" viewBox="0 0 176 51.63"><defs><clipPath id="a"><path d="M45 1h52v50.629H45Zm0 0"/></clipPath></defs><path d="M0 1.61h10.316v18.554H29.34V1.61h10.316V48.5H29.34V29.676H10.316V48.5H0z" style="stroke:none;fill-rule:nonzero;fill:#e41b31;fill-opacity:1"/><g clip-path="url(#a)"><path d="M85.61 26.629v-.14c0-8.239-6.044-15.102-14.56-15.102-8.51 0-14.413 6.726-14.413 14.965v.136c0 8.242 6.039 15.106 14.554 15.106s14.418-6.73 14.418-14.965m-40.027 0v-.14c0-13.66 10.777-24.852 25.61-24.852 14.831 0 25.472 11.05 25.472 24.715v.136c0 13.664-10.777 24.86-25.613 24.86-14.828 0-25.469-11.055-25.469-24.72" style="stroke:none;fill-rule:nonzero;fill:#e41b31;fill-opacity:1"/></g><path d="M120.73 25.348c5.157 0 8.176-3.082 8.176-7.102v-.133c0-4.625-3.222-7.101-8.375-7.101h-7.972v14.336ZM102.242 1.699h19.156c11.192 0 17.954 6.633 17.954 16.211v.137c0 10.848-8.442 16.476-18.957 16.476h-7.836V48.59h-10.317zM175.992 6.234l-25.86 30.813-7.433-6.234L168.562-.005zM138.387 50a6.455 6.455 0 0 1-6.489-6.441 6.455 6.455 0 0 1 6.442-6.489 6.46 6.46 0 0 1 6.488 6.446A6.46 6.46 0 0 1 138.387 50" style="stroke:none;fill-rule:nonzero;fill:#e41b31;fill-opacity:1"/></svg>
